X:1
T:The Hag At The Churn
M:6/8
L:1/8
O:Trad. (29.11.2013/NS)
R: jig
K:Dmix
|:"D"A2G ADD|A2G Adc|A2G ADD|EFG EFG:|
"D"AdB "C"c3|"D"Add efg|"D"AdB "C"c2A|"G"GEG AED|
"D"AdB "C"c3|"D"Add efg|"A"age dBA|GEG AED||
